packages/katcn/src/icons/svg/print.svg

<svg width="24" height="25" viewBox="0 0 24 25" fill="none" xmlns="http://www.w3.org/2000/svg">
<path d="M18.5 5.51202H5.5C3.5 5.51202 2 7.01202 2 9.01202V15.712C2 17.612 3.5 19.212 5.5 19.212H6V20.712C6 22.112 7.2 23.312 8.7 23.312H15.4C16.9 23.312 18.1 22.112 18.1 20.612V19.112H18.6C20.5 19.112 22.1 17.512 22.1 15.612V9.01202C22 7.01202 20.5 5.51202 18.5 5.51202ZM16 20.612C16 21.012 15.7 21.312 15.3 21.312H8.7C8.3 21.312 8 21.012 8 20.612V14.912H16V20.612ZM20 15.612C20 16.412 19.3 17.112 18.5 17.112H18V13.912C18 13.312 17.6 12.912 17 12.912H7C6.4 12.912 6 13.312 6 13.912V17.112H5.5C4.7 17.112 4 16.412 4 15.612V9.01202C4 8.21202 4.7 7.51202 5.5 7.51202H18.6C19.4 7.51202 20.1 8.21202 20.1 9.01202V15.612H20Z" fill="black"/>
<path d="M7 5.01201C7.6 5.01201 8 4.61201 8 4.01201C8 3.61201 8.3 3.31201 8.7 3.31201H15.4C15.7 3.31201 16 3.61201 16 4.01201C16 4.61201 16.4 5.01201 17 5.01201C17.6 5.01201 18 4.61201 18 4.01201C18 2.51201 16.8 1.31201 15.3 1.31201H8.7C7.2 1.31201 6 2.51201 6 4.01201C6 4.51201 6.4 5.01201 7 5.01201Z" fill="black"/>
<path d="M17.8 10.612C18.2418 10.612 18.6 10.2539 18.6 9.81202C18.6 9.3702 18.2418 9.01202 17.8 9.01202C17.3582 9.01202 17 9.3702 17 9.81202C17 10.2539 17.3582 10.612 17.8 10.612Z" fill="black"/>
</svg>

<svg xmlns="http://www.w3.org/2000/svg" fill="none" viewBox="0 0 24 25"><path fill="#000" d="M18.5 5.512h-13c-2 0-3.5 1.5-3.5 3.5v6.7c0 1.9 1.5 3.5 3.5 3.5H6v1.5c0 1.4 1.2 2.6 2.7 2.6h6.7c1.5 0 2.7-1.2 2.7-2.7v-1.5h.5c1.9 0 3.5-1.6 3.5-3.5v-6.6c-.1-2-1.6-3.5-3.6-3.5m-2.5 15.1c0 .4-.3.7-.7.7H8.7c-.4 0-.7-.3-.7-.7v-5.7h8zm4-5c0 .8-.7 1.5-1.5 1.5H18v-3.2c0-.6-.4-1-1-1H7c-.6 0-1 .4-1 1v3.2h-.5c-.8 0-1.5-.7-1.5-1.5v-6.6c0-.8.7-1.5 1.5-1.5h13.1c.8 0 1.5.7 1.5 1.5v6.6zM7 5.012c.6 0 1-.4 1-1 0-.4.3-.7.7-.7h6.7c.3 0 .6.3.6.7 0 .6.4 1 1 1s1-.4 1-1c0-1.5-1.2-2.7-2.7-2.7H8.7c-1.5 0-2.7 1.2-2.7 2.7 0 .5.4 1 1 1"/><path fill="#000" d="M17.8 10.612a.8.8 0 1 0 0-1.6.8.8 0 0 0 0 1.6"/></svg>
